!!!SOCIAL_FUNCTION:	songs used in the treatment of the sick
!!!PDT:	1929
!!!OTL: No_64_Song_Concerning_the_White_Bees.krn
!!!REG: Southwest
!!!LANG: Non-Tone
!!!LING_GROUP: Uto-Aztecan
**kern
*staff1
*clefF4
*k[b-]
*M3/4
4D\
=1
4A\
8.A\L
16A\Jk
8.A\L
16F\Jk
=2!|:
*M2/4
4A\
(8.B-\L
16A\Jk)
=3
8.A\L
16A\Jk
8.A\L
16F\Jk
=4
8.E\L
16D\Jk
(12E\L
12D\)
12D\J
=5
8.D\L
16D\Jk
8.AA/L
16D/Jk
=6
8.D\L
16E\Jk
8.D\L
16D\Jk
=7
16D\LK
8.D\J
8AA/
8r
=8
8.D/L
16AA/Jk
4D\
=9
(16E\LL
16D\)
16D\
16D\JJ
(12E\L
12D\)
12D\J
=10
4D\
8.AA/L
16D/Jk
=11
8.D/L
16AA/Jk
8.D\L
16D\Jk
=12
8.D\L
16D\Jk
8.AA/L
16AA/Jk
=13
8.D/L
16AA/Jk
8.D\L
16D\Jk
=14
8.D\L
16D\Jk
8.D\L
16D\Jk
=15
2D\
==:|!
*-
